svg/SJJB-OpenStreetMapIcons/tourist/steam_train.svg

<?xml version="1.0" encoding="UTF-8" standalone="no"?>
<!-- Created with Inkscape (http://www.inkscape.org/) -->
<svg
   xmlns:dc="http://purl.org/dc/elements/1.1/"
   xmlns:cc="http://creativecommons.org/ns#"
   xmlns:rdf="http://www.w3.org/1999/02/22-rdf-syntax-ns#"
   xmlns:svg="http://www.w3.org/2000/svg"
   xmlns="http://www.w3.org/2000/svg"
   xmlns:sodipodi="http://sodipodi.sourceforge.net/DTD/sodipodi-0.dtd"
   xmlns:inkscape="http://www.inkscape.org/namespaces/inkscape"
   version="1.0"
   width="580"
   height="580"
   id="svg2"
   sodipodi:version="0.32"
   inkscape:version="0.46"
   sodipodi:docname="steam_train.svg"
   sodipodi:docbase="s:\Data\FacilityIcons"
   inkscape:output_extension="org.inkscape.output.svg.inkscape">
  <metadata
     id="metadata2975">
    <rdf:RDF>
      <cc:Work
         rdf:about="">
        <dc:format>image/svg+xml</dc:format>
        <dc:type
           rdf:resource="http://purl.org/dc/dcmitype/StillImage" />
			  <cc:license
           rdf:resource="http://web.resource.org/cc/PublicDomain" />
        <dc:language>en</dc:language>
      </cc:Work>
    </rdf:RDF>
  </metadata>
  <sodipodi:namedview
     inkscape:window-height="1003"
     inkscape:window-width="1400"
     inkscape:pageshadow="2"
     inkscape:pageopacity="0.0"
     guidetolerance="10.0"
     gridtolerance="10.0"
     objecttolerance="10.0"
     borderopacity="1.0"
     bordercolor="#666666"
     pagecolor="#ffffff"
     id="base"
     inkscape:zoom="0.46083856"
     inkscape:cx="795.57161"
     inkscape:cy="513.43447"
     inkscape:window-x="-4"
     inkscape:window-y="-4"
     inkscape:current-layer="svg2"
     showgrid="false" />
  <defs
     id="defs4">
    <inkscape:perspective
       sodipodi:type="inkscape:persp3d"
       inkscape:vp_x="0 : 290 : 1"
       inkscape:vp_y="0 : 1000 : 0"
       inkscape:vp_z="580 : 290 : 1"
       inkscape:persp3d-origin="290 : 193.33333 : 1"
       id="perspective2441" />
    <inkscape:perspective
       id="perspective2466"
       inkscape:persp3d-origin="372.04724 : 350.78739 : 1"
       inkscape:vp_z="744.09448 : 526.18109 : 1"
       inkscape:vp_y="0 : 1000 : 0"
       inkscape:vp_x="0 : 526.18109 : 1"
       sodipodi:type="inkscape:persp3d" />
    <inkscape:perspective
       id="perspective3333"
       inkscape:persp3d-origin="372.04724 : 350.78739 : 1"
       inkscape:vp_z="744.09448 : 526.18109 : 1"
       inkscape:vp_y="0 : 1000 : 0"
       inkscape:vp_x="0 : 526.18109 : 1"
       sodipodi:type="inkscape:persp3d" />
  </defs>
  <g
     id="g1327">
    <path
       d="M 66.275,1.768 C 24.94,1.768 1.704,23.139 1.704,66.804 L 1.704,516.927 C 1.704,557.771 22.599,579.156 63.896,579.156 L 515.92,579.156 C 557.227,579.156 578.149,558.841 578.149,516.927 L 578.149,66.804 C 578.149,24.203 557.227,1.768 514.628,1.768 C 514.624,1.768 66.133,1.625 66.275,1.768 z "
       style="fill:#111;stroke:#eee;stroke-width:3.40799999"
       id="path1329" />
  </g>
  <path
     sodipodi:type="arc"
     style="fill:#ffffff;fill-opacity:1;stroke:none;stroke-width:20;stroke-linecap:round;stroke-linejoin:round;stroke-miterlimit:4;stroke-dasharray:none;stroke-dashoffset:0;stroke-opacity:1"
     id="path3349"
     sodipodi:cx="-614.77606"
     sodipodi:cy="-607.10229"
     sodipodi:rx="6.6454945"
     sodipodi:ry="6.916739"
     d="M -608.13057,-607.10059 A 6.6454945,6.916739 0 1 1 -608.13057,-607.1019"
     sodipodi:start="0.00024710373"
     sodipodi:end="6.2832427"
     sodipodi:open="true"
     transform="matrix(7.2534492,0,0,7.2534492,4576.5023,4838.6403)" />
  <path
     sodipodi:type="arc"
     style="fill:#ffffff;fill-opacity:1;stroke:none;stroke-width:20;stroke-linecap:round;stroke-linejoin:round;stroke-miterlimit:4;stroke-dasharray:none;stroke-dashoffset:0;stroke-opacity:1"
     id="path3351"
     sodipodi:cx="-614.77606"
     sodipodi:cy="-607.10229"
     sodipodi:rx="6.6454945"
     sodipodi:ry="6.916739"
     d="M -608.13057,-607.10059 A 6.6454945,6.916739 0 1 1 -608.13057,-607.1019"
     sodipodi:start="0.00024710373"
     sodipodi:end="6.2832427"
     sodipodi:open="true"
     transform="matrix(7.2534492,0,0,7.2534492,4716.7511,4837.5003)" />
  <path
     sodipodi:type="arc"
     style="fill:#ffffff;fill-opacity:1;stroke:none;stroke-width:20;stroke-linecap:round;stroke-linejoin:round;stroke-miterlimit:4;stroke-dasharray:none;stroke-dashoffset:0;stroke-opacity:1"
     id="path3353"
     sodipodi:cx="-614.77606"
     sodipodi:cy="-607.10229"
     sodipodi:rx="6.6454945"
     sodipodi:ry="6.916739"
     d="M -608.13057,-607.10059 A 6.6454945,6.916739 0 1 1 -608.13057,-607.1019"
     sodipodi:start="0.00024710373"
     sodipodi:end="6.2832427"
     sodipodi:open="true"
     transform="matrix(7.2534492,0,0,7.2534492,4851.2985,4836.3601)" />
  <path
     transform="matrix(5.1103843,0,0,5.1103843,3645.5365,3556.9651)"
     sodipodi:open="true"
     sodipodi:end="6.2832427"
     sodipodi:start="0.00024710373"
     d="M -608.13057,-607.10059 A 6.6454945,6.916739 0 1 1 -608.13057,-607.1019"
     sodipodi:ry="6.916739"
     sodipodi:rx="6.6454945"
     sodipodi:cy="-607.10229"
     sodipodi:cx="-614.77606"
     id="path3355"
     style="fill:#ffffff;fill-opacity:1;stroke:none;stroke-width:20;stroke-linecap:round;stroke-linejoin:round;stroke-miterlimit:4;stroke-dasharray:none;stroke-dashoffset:0;stroke-opacity:1"
     sodipodi:type="arc" />
  <path
     style="fill:#ffffff;fill-opacity:1;fill-rule:evenodd;stroke:#ffffff;stroke-width:10;stroke-linecap:round;stroke-linejoin:round;stroke-miterlimit:4;stroke-dasharray:none;stroke-opacity:1"
     d="M 53.402618,351.8179 C 53.402618,365.5007 53.402618,379.1835 53.402618,392.8663 C 190.61054,392.8663 327.81847,392.8663 465.0264,392.8663 C 465.0264,404.64869 465.0264,416.43108 465.0264,428.21347 C 492.0119,428.21347 518.99741,428.21347 545.98291,428.21347 C 545.98291,368.92141 545.98291,309.62935 545.98291,250.3373 C 533.44036,250.3373 520.89781,250.3373 508.35526,250.3373 C 508.35526,287.58488 508.35526,324.83246 508.35526,362.08005 C 488.9713,362.08005 469.58735,362.08005 450.2034,362.08005 C 450.2034,301.26765 450.2034,240.45525 450.2034,179.64285 C 468.44713,179.64285 486.69087,179.64285 504.9346,179.64285 C 504.9346,168.6206 504.9346,157.59835 504.9346,146.5761 C 471.48777,146.5761 438.04094,146.5761 404.59412,146.5761 C 404.59412,178.88268 404.59412,211.18925 404.59412,243.49583 C 376.84847,243.49583 349.10282,243.49583 321.35718,243.49583 C 319.02583,222.65835 307.84371,199.46019 284.98403,196.10565 C 261.363,190.1208 232.42001,202.89708 227.01567,228.25163 C 227.46005,244.28013 217.5918,246.44435 204.725,244.63614 C 189.25134,244.63614 173.77768,244.63614 158.30402,244.63614 C 158.30402,213.84987 158.30402,183.0636 158.30402,152.27733 C 141.20052,152.27733 124.09703,152.27733 106.99353,152.27733 C 106.99353,182.30343 106.99353,212.32953 106.99353,242.35564 C 97.871691,242.35564 88.749852,242.35564 79.628014,242.35564 C 62.272905,255.61602 55.208527,273.13003 54.538108,297.94786 C 56.204324,318.83232 66.344738,342.23403 79.606088,351.81789 C 70.871598,351.81789 62.137108,351.8179 53.402618,351.8179 z"
     id="path3359"
     sodipodi:nodetypes="cccccccccccccccccccccccccc" />
</svg>

<svg xmlns="http://www.w3.org/2000/svg" viewBox="0 0 580 580" xmlns:xlink="http://www.w3.org/1999/xlink"><defs><path id="0" d="M-608.13057-607.10059A6.645494 6.916739 0 1 1 -608.13057 -607.1019" fill="#fff"/></defs><path d="m66.28 1.768c-41.34 0-64.57 21.371-64.57 65.04v450.12c0 40.844 20.895 62.23 62.19 62.23h452.02c41.31 0 62.23-20.315 62.23-62.23v-450.12c0-42.601-20.922-65.04-63.52-65.04-.004 0-448.5-.143-448.35 0z" fill="#111" stroke="#eee" stroke-width="3.408"/><use transform="matrix(7.25345 0 0 7.25345 4576.5 4838.64)" xlink:href="#0"/><use transform="matrix(7.25345 0 0 7.25345 4716.75 4837.5)" xlink:href="#0"/><use transform="matrix(7.25345 0 0 7.25345 4851.3 4836.36)" xlink:href="#0"/><use transform="matrix(5.11038 0 0 5.11038 3645.54 3556.97)" xlink:href="#0"/><path d="m53.4 351.82c0 13.683 0 27.366 0 41.05 137.21 0 274.42 0 411.62 0 0 11.782 0 23.565 0 35.35 26.986 0 53.971 0 80.957 0 0-59.29 0-118.58 0-177.88-12.543 0-25.09 0-37.628 0 0 37.25 0 74.5 0 111.74-19.384 0-38.768 0-58.15 0 0-60.812 0-121.62 0-182.44 18.244 0 36.487 0 54.731 0 0-11.02 0-22.04 0-33.07-33.447 0-66.894 0-100.34 0 0 32.31 0 64.61 0 96.92-27.746 0-55.49 0-83.24 0-2.331-20.837-13.513-44.04-36.37-47.39-23.621-5.985-52.56 6.791-57.968 32.15.444 16.03-9.424 18.19-22.291 16.385-15.474 0-30.947 0-46.42 0 0-30.786 0-61.57 0-92.36-17.1 0-34.21 0-51.31 0 0 30.03 0 60.05 0 90.08-9.122 0-18.244 0-27.366 0-17.355 13.26-24.419 30.774-25.09 55.59 1.666 20.884 11.807 44.29 25.07 53.87-8.734 0-17.469 0-26.2 0z" fill="#fff" fill-rule="evenodd" stroke="#fff" stroke-linejoin="round" stroke-linecap="round" stroke-width="10"/></svg>
